X: 2021
T: Ashley MacIsaac's
R: reel
M: 4/4
K: Amajor
F|EAAG ABcB|AccB cde=g|fddc dfaf|ecAc BAFA|
EAAG ABcB|AccB cde=g|fddc dfaf|ecBc A3:|
|:e|f2 fe fgaf|eccB AFFA|E2 EF EFAB|c2 dc BAFA|
[1f2 fe fgaf|eccB AFFA|E2 EF EFAc|BABc A3:|
[2EAAG ABcB|AccB cde=g|fddc dfaf|ecBc A3||

